_includes/icons/color-index.svg

<svg fill="#666" height="50" viewBox="0 0 48 48" width="50" xmlns="http://www.w3.org/2000/svg"><g fill="#2196f3"><path d="m42 7h-26v4h26z"/><path d="m42 17h-26v4h26z"/><path d="m42 27h-26v4h26z"/><path d="m42 37h-26v4h26z"/></g><g fill="#1565c0"><path d="m6 6h6v6h-6z"/><path d="m6 16h6v6h-6z"/><path d="m6 26h6v6h-6z"/><path d="m6 36h6v6h-6z"/></g></svg>

<svg xmlns="http://www.w3.org/2000/svg" viewBox="0 0 48 48" width="50" height="50" fill="#666"><path d="M 42 7 L 16 7 L 16 11 L 42 11 Z" fill="#2196f3"/><path d="M 42 17 L 16 17 L 16 21 L 42 21 Z" fill="#2196f3"/><path d="M 42 27 L 16 27 L 16 31 L 42 31 Z" fill="#2196f3"/><path d="M 42 37 L 16 37 L 16 41 L 42 41 Z" fill="#2196f3"/><path d="M 6 6 L 12 6 L 12 12 L 6 12 Z" fill="#1565c0"/><path d="M 6 16 L 12 16 L 12 22 L 6 22 Z" fill="#1565c0"/><path d="M 6 26 L 12 26 L 12 32 L 6 32 Z" fill="#1565c0"/><path d="M 6 36 L 12 36 L 12 42 L 6 42 Z" fill="#1565c0"/></svg>
